source/img/icon-gift.svg

<svg fill="none" height="75" viewBox="0 0 64 75" width="64" xmlns="http://www.w3.org/2000/svg"><path d="m61.1556 22.1167h-.1016-24.6857c13.8158-6.7978 14.9333-11.0965 14.4254-13.49572-1.1175-3.89877-5.6889-6.89782-9.9556-5.29832-5.5873 2.09933-7.1111 10.29674-8.6349 16.19484-1.9302-5.9981-3.7588-13.59567-8.127-17.49443-1.2191-1.099656-3.0476-2.199309-5.7905-1.9993718-4.0635.3998738-9.85395 5.2983218-7.4159 10.7966018 2.235 5.2983 9.6508 8.6972 14.6286 11.3964h-22.65396c-1.62539 0-2.84444 1.2996-2.84444 2.7991v11.1965c0 1.5995 1.32063 2.7991 2.84444 2.7991h.30477v35.9886h57.90479v-35.9886h.1016c1.6254 0 2.8444-1.2996 2.8444-2.7991v-11.1965c0-1.5995-1.3206-2.8991-2.8444-2.8991zm-18.6921-16.29483c2.1333-.29991 4.9778 1.29959 5.2825 3.19898.4064 2.69915-3.3523 5.19835-5.0793 6.29805-2.5397 1.6994-4.9778 2.5991-7.3143 3.9987.8127-3.6988 2.5397-12.89592 7.1111-13.49573zm-22.9587 9.79693c-2.235-1.4996-6.5016-4.3986-6.4-7.6976.1015-3.59886 5.7904-6.49794 8.8381-3.7988 3.8603 3.29896 5.6888 10.9965 7.1111 16.3948-3.2508-1.5995-6.2984-2.7991-9.5492-4.8984zm5.9936 56.3821h-19.40316v-32.9895h19.40316zm0-35.9886h-22.45078v-10.8965h22.45078zm10.1587 35.9886h-7.2127v-46.8851h7.2127zm22.3493 0h-19.3016v-32.9895h19.4031v32.9895zm2.946-35.9886h-22.2476v-10.8965h22.2476z" fill="#81b3d2"/></svg>

<svg fill="none" height="75" viewBox="0 0 64 75" width="64" xmlns="http://www.w3.org/2000/svg"><path d="M61.156 22.117H36.368C50.184 15.319 51.302 11.02 50.794 8.62c-1.118-3.899-5.69-6.898-9.956-5.298-5.587 2.099-7.111 10.296-8.635 16.195-1.93-5.999-3.759-13.596-8.127-17.495-1.219-1.1-3.047-2.2-5.79-2-4.064.4-9.854 5.299-7.416 10.797 2.235 5.299 9.65 8.697 14.628 11.397H2.844A2.817 2.817 0 000 25.016v11.196c0 1.6 1.32 2.8 2.844 2.8h.305V75h57.905V39.011h.102c1.625 0 2.844-1.3 2.844-2.799V25.016c0-1.6-1.32-2.9-2.844-2.9zM42.464 5.822c2.133-.3 4.977 1.3 5.282 3.199.406 2.699-3.352 5.198-5.08 6.298-2.539 1.7-4.977 2.599-7.314 3.999.813-3.7 2.54-12.896 7.111-13.496zm-22.96 9.797c-2.234-1.5-6.5-4.399-6.4-7.698.102-3.599 5.791-6.498 8.839-3.799 3.86 3.3 5.689 10.997 7.111 16.395-3.25-1.6-6.298-2.799-9.55-4.898zM25.499 72H6.095V39.01h19.403zm0-35.989H3.048V25.116h22.45zM35.659 72h-7.214V25.116h7.213zm22.348 0H38.705V39.01h19.403V72zm2.946-35.989H38.705V25.116h22.247z" fill="#81b3d2"/></svg>
